X:1
T:Wild Rider
T:Wild Rider
T:Robert Schumann
T:Album for the Young (Op. 68, No. 8)
C:Robert Schumann
%%score { 1 | 2 }
L:1/8
M:6/8
K:C
V:1 treble nm="Piano" snm="Pno."
V:2 bass 
V:1
!mf! .E | .A.E.A .c.A.c | (.e.c).f .e.c.A | (.B.^G).c .B.G.E | .A.E.c .B z .E | .A.E.A .c.A.c | %6
 (.e.c).f .e.c.A | (.B.^G).c .B.G.E | .A.E.^G .A z :| z | .[CFA] z z .[CFA] z z | %11
 [FA]2 .[FA] .[FA] z z | [EGc]2 .[EGc] .[EGc] z z | .[FAc].A.F .[EG] z z | .[CFA] z z .[CFA] z z | %15
 [FA]2 .[FA] .[FA] z z | [EGc]2 .[EGc] .[EGc] z z | .[CFA] z .[CG] .F z ||!mf! .E | .A.E.A .c.A.c | %20
 (.e.c).f .e.c.A | (.B.^G).c .B.G.E | .A.E.c .B z .E | .A.E.A .c.A.c | (.e.c).f .e.c.A | %25
 (.B.^G).c .B.G.E | .A.E.^G .A z |] %27
V:2
 z | .[A,C] z z .[A,CE] z z | [A,CE]2 .[A,DF] .[A,CE] z z | [E,^G,B,]2 .[E,A,C] .[E,G,B,] z z | %4
 .[A,C] z .[A,C] .[E,^G,B,] z z | .[A,C] z z .[A,CE] z z | [A,CE]2 .[A,DF] .[A,CE] z z | %7
 [E,^G,B,]2 .[E,A,C] .[E,G,B,] z z | .[A,C] z .[E,B,] .[A,C] z :| .C, | .F,.C,.F, .A,.F,.A, | %11
 (CA,).D .C.A,.F, | (G,E,).A, .G,.E,.C, | .F,.C,.A, .[C,G,] z .C, | .F,.C,.F, .A,.F,.A, | %15
 (CA,).D .C.A,.F, | (G,E,).A, .G,.E,.C, | .F,.C,.E, .F, z || z | .[A,C] z z .[A,CE] z z | %20
 [A,CE]2 .[A,DF] .[A,CE] z z | [E,^G,B,]2 .[E,A,C] .[E,G,B,] z z | .[A,C] z .[A,C] .[E,^G,B,] z z | %23
 .[A,C] z z .[A,CE] z z | [A,CE]2 .[A,DF] .[A,CE] z z | [E,^G,B,]2 .[E,A,C] .[E,G,B,] z z | %26
 .[A,C] z .[E,B,] .[A,C] z |] %27

